assets/Tooth/Flat/tooth_flat.svg

<svg width="32" height="32" viewBox="0 0 32 32" fill="none" xmlns="http://www.w3.org/2000/svg">
<path d="M30.9986 10.0165C30.7491 5.35595 26.7698 1.77337 22.1095 2.01119C20.5183 2.09085 18.9868 2.62497 17.6845 3.54211C16.6797 4.24918 15.3301 4.24901 14.3253 3.54194C10.5035 0.854248 5.22976 1.77288 2.54204 5.59466C-0.144973 9.41543 0.772522 14.6875 4.59187 17.3759C4.83815 17.5515 5.09815 17.709 5.32128 17.8408L5.33228 17.8473L5.34343 17.8535C5.83237 18.1259 6.15047 18.6362 6.18153 19.1954L6.28194 20.8119L6.28208 20.8142C6.46853 23.7096 7.76254 26.4209 9.90355 28.3764C10.9688 29.3586 12.6302 29.2935 13.6148 28.2282C14.0074 27.8029 14.2416 27.2606 14.3039 26.7003L14.3047 26.6928L14.765 21.8905C14.8062 21.5077 15.0022 20.9738 15.3058 20.5471C15.6333 20.0867 15.896 19.9999 15.9844 19.9999C16.0775 19.9999 16.3486 20.0922 16.684 20.5546C16.9952 20.9836 17.1945 21.5152 17.2351 21.8906L17.6939 26.6785L17.6943 26.6823C17.8251 28.1304 19.099 29.1933 20.5458 29.0662C21.1223 29.0176 21.6744 28.7779 22.1028 28.3706C24.24 26.4156 25.5317 23.7067 25.7179 20.8142L25.7181 20.8119L25.8178 19.2064L25.8179 19.2044C25.856 18.6445 26.173 18.1362 26.6717 17.8507C29.4915 16.2745 31.1687 13.2364 30.9986 10.0165Z" fill="#9B9B9B"/>
<path d="M29.9999 10.0699C29.7799 5.95989 26.2699 2.79989 22.1599 3.00989C20.7599 3.07989 19.4099 3.54989 18.2599 4.35989C16.9099 5.30989 15.0999 5.30989 13.7499 4.35989C10.3799 1.98989 5.72993 2.79989 3.35993 6.16989C0.989931 9.53989 1.79993 14.1899 5.16993 16.5599C5.37993 16.7099 5.60993 16.8499 5.82993 16.9799C6.61993 17.4199 7.12993 18.2399 7.17993 19.1399L7.27993 20.7499C7.44993 23.3899 8.62993 25.8599 10.5799 27.6399C11.2399 28.2499 12.2699 28.2099 12.8799 27.5499C13.1199 27.2899 13.2699 26.9499 13.3099 26.5899L13.7699 21.7899C13.8899 20.6499 14.8343 18.9999 15.9843 18.9999C17.1343 18.9999 18.1099 20.6499 18.2299 21.7899L18.6899 26.5899C18.7699 27.4899 19.5599 28.1499 20.4599 28.0699C20.8199 28.0399 21.1599 27.8899 21.4199 27.6399C23.3699 25.8599 24.5499 23.3899 24.7199 20.7499L24.8199 19.1399C24.8799 18.2399 25.3899 17.4299 26.1799 16.9799C28.6699 15.5899 30.1499 12.9099 29.9999 10.0699Z" fill="white"/>
<path d="M24.2188 5.15651C23.5 5.26068 21.7063 5.65651 20.2812 6.40651C20.0018 6.55361 19.7569 6.70532 19.5348 6.85658C19.4845 6.91729 19.4191 6.96695 19.3412 6.9992C19.3333 7.00247 19.3254 7.00585 19.3174 7.00933C19.1361 7.14032 18.9692 7.26967 18.8087 7.39403C18.6197 7.54042 18.4397 7.6799 18.2558 7.80699C18.0059 8.05765 17.7526 8.35287 17.5157 8.68042C16.9048 9.52512 16.4919 10.4634 16.4919 11.2157C16.4919 11.4919 16.2681 11.7157 15.9919 11.7157C15.7158 11.7158 15.4919 11.4919 15.4919 11.2158C15.4919 10.2913 15.9119 9.30075 16.458 8.456C16.3426 8.46456 16.2214 8.46901 16.0938 8.46901C14.5696 8.46901 13.5732 7.7652 12.5899 7.07053C12.2627 6.83943 11.937 6.60934 11.5938 6.40651C10.4938 5.75651 8.28125 5.35443 7.125 5.15651C8.3125 4.83359 10.9437 4.31276 11.9688 4.81276C12.4123 5.02912 12.8783 5.33911 13.3486 5.65197C14.2369 6.24285 15.1407 6.84399 15.9375 6.84399C16.6659 6.84399 17.3609 6.29701 18.0557 5.75013C18.5234 5.38201 18.991 5.01393 19.4688 4.81276C20.4187 4.41275 23.0312 4.87525 24.2188 5.15651Z" fill="#D3D3D3"/>
</svg>

<svg xmlns="http://www.w3.org/2000/svg" width="32" height="32" fill="none"><path fill="#9B9B9B" d="M30.999 10.017a8.472 8.472 0 0 0-8.89-8.006 8.415 8.415 0 0 0-4.425 1.531 2.925 2.925 0 0 1-3.359 0A8.456 8.456 0 0 0 2.542 5.595a8.456 8.456 0 0 0 2.05 11.78c.246.177.506.334.73.466l.01.006.011.006c.49.273.807.783.839 1.342l.1 1.617v.002a11.212 11.212 0 0 0 3.622 7.562 2.628 2.628 0 0 0 3.71-.148c.393-.425.628-.967.69-1.528v-.007l.461-4.803c.041-.382.237-.916.54-1.343.328-.46.591-.547.68-.547.093 0 .364.092.699.555.311.429.51.96.551 1.336l.459 4.788v.003a2.628 2.628 0 0 0 2.852 2.384 2.572 2.572 0 0 0 1.557-.695 11.211 11.211 0 0 0 3.615-7.557v-.002l.1-1.606v-.002c.038-.56.355-1.068.854-1.353a8.465 8.465 0 0 0 4.327-7.834Z"/><path fill="#fff" d="M30 10.07a7.472 7.472 0 0 0-7.84-7.06c-1.4.07-2.75.54-3.9 1.35-1.35.95-3.16.95-4.51 0A7.456 7.456 0 0 0 3.36 6.17a7.456 7.456 0 0 0 1.81 10.39c.21.15.44.29.66.42.79.44 1.3 1.26 1.35 2.16l.1 1.61c.17 2.64 1.35 5.11 3.3 6.89.66.61 1.69.57 2.3-.09.24-.26.39-.6.43-.96l.46-4.8c.12-1.14 1.064-2.79 2.214-2.79s2.126 1.65 2.246 2.79l.46 4.8c.08.9.87 1.56 1.77 1.48.36-.03.7-.18.96-.43 1.95-1.78 3.13-4.25 3.3-6.89l.1-1.61c.06-.9.57-1.71 1.36-2.16A7.464 7.464 0 0 0 30 10.07Z"/><path fill="#D3D3D3" d="M24.219 5.157c-.719.104-2.513.5-3.938 1.25-.28.147-.524.298-.746.45a.498.498 0 0 1-.218.152c-.18.131-.348.26-.508.385-.19.146-.37.286-.553.413a7.33 7.33 0 0 0-.74.873c-.611.845-1.024 1.783-1.024 2.536a.5.5 0 1 1-1 0c0-.925.42-1.915.966-2.76a4.923 4.923 0 0 1-.364.013c-1.524 0-2.52-.704-3.504-1.398-.327-.232-.653-.462-.996-.664-1.1-.65-3.313-1.053-4.469-1.25 1.188-.323 3.819-.844 4.844-.344.443.216.91.526 1.38.839.888.59 1.792 1.192 2.588 1.192.729 0 1.424-.547 2.119-1.094.467-.368.935-.736 1.413-.937.95-.4 3.562.062 4.75.344Z"/></svg>
